Resources/ExampleLUTs/Cool_Breeze.cube
TITLE Cool Breeze
# Crisp daytime coolness - pulls back warmth, good under bright lighting.
LUT_1D_SIZE 33

0.000000 0.000000 0.000000
0.026875 0.030156 0.031250
0.053750 0.060312 0.062500
0.080625 0.090469 0.093750
0.107500 0.120625 0.125000
0.134375 0.150781 0.156250
0.161250 0.180938 0.187500
0.188125 0.211094 0.218750
0.215000 0.241250 0.250000
0.241875 0.271406 0.281250
0.268750 0.301563 0.312500
0.295625 0.331719 0.343750
0.322500 0.361875 0.375000
0.349375 0.392031 0.406250
0.376250 0.422187 0.437500
0.403125 0.452344 0.468750
0.430000 0.482500 0.500000
0.456875 0.512656 0.531250
0.483750 0.542813 0.562500
0.510625 0.572969 0.593750
0.537500 0.603125 0.625000
0.564375 0.633281 0.656250
0.591250 0.663438 0.687500
0.618125 0.693594 0.718750
0.645000 0.723750 0.750000
0.671875 0.753906 0.781250
0.698750 0.784062 0.812500
0.725625 0.814219 0.843750
0.752500 0.844375 0.875000
0.779375 0.874531 0.906250
0.806250 0.904687 0.937500
0.833125 0.934844 0.968750
0.860000 0.965000 1.000000
