Resources/ExampleLUTs/Film_Curve.cube
TITLE Film Curve
# Mild S-curve contrast - lifts shadows, compresses highlights for a cinematic feel.
LUT_1D_SIZE 33

0.000000 0.000000 0.000000
0.024155 0.024155 0.024155
0.049683 0.049683 0.049683
0.076492 0.076492 0.076492
0.104492 0.104492 0.104492
0.133591 0.133591 0.133591
0.163696 0.163696 0.163696
0.194717 0.194717 0.194717
0.226562 0.226562 0.226562
0.259140 0.259140 0.259140
0.292358 0.292358 0.292358
0.326126 0.326126 0.326126
0.360352 0.360352 0.360352
0.394943 0.394943 0.394943
0.429810 0.429810 0.429810
0.464859 0.464859 0.464859
0.500000 0.500000 0.500000
0.535141 0.535141 0.535141
0.570190 0.570190 0.570190
0.605057 0.605057 0.605057
0.639648 0.639648 0.639648
0.673874 0.673874 0.673874
0.707642 0.707642 0.707642
0.740860 0.740860 0.740860
0.773438 0.773438 0.773438
0.805283 0.805283 0.805283
0.836304 0.836304 0.836304
0.866409 0.866409 0.866409
0.895508 0.895508 0.895508
0.923508 0.923508 0.923508
0.950317 0.950317 0.950317
0.975845 0.975845 0.975845
1.000000 1.000000 1.000000
