Resources/ExampleLUTs/Soft_Matte.cube
TITLE Soft Matte
# Easy-on-eyes matte - lifts black point and clips white to reduce visual fatigue.
LUT_1D_SIZE 33

0.050000 0.050000 0.050000
0.077188 0.077188 0.077188
0.104375 0.104375 0.104375
0.131562 0.131562 0.131562
0.158750 0.158750 0.158750
0.185937 0.185937 0.185937
0.213125 0.213125 0.213125
0.240312 0.240312 0.240312
0.267500 0.267500 0.267500
0.294687 0.294687 0.294687
0.321875 0.321875 0.321875
0.349062 0.349062 0.349062
0.376250 0.376250 0.376250
0.403438 0.403438 0.403438
0.430625 0.430625 0.430625
0.457813 0.457813 0.457813
0.485000 0.485000 0.485000
0.512188 0.512188 0.512188
0.539375 0.539375 0.539375
0.566563 0.566563 0.566563
0.593750 0.593750 0.593750
0.620938 0.620938 0.620938
0.648125 0.648125 0.648125
0.675313 0.675313 0.675313
0.702500 0.702500 0.702500
0.729688 0.729688 0.729688
0.756875 0.756875 0.756875
0.784062 0.784062 0.784062
0.811250 0.811250 0.811250
0.838438 0.838438 0.838438
0.865625 0.865625 0.865625
0.892813 0.892813 0.892813
0.920000 0.920000 0.920000
