Resources/ExampleLUTs/Vivid.cube
TITLE Vivid
# High-contrast S-curve - punchy and saturated, ideal for presentations.
LUT_1D_SIZE 33

0.000000 0.000000 0.000000
0.015640 0.015640 0.015640
0.034302 0.034302 0.034302
0.055783 0.055783 0.055783
0.079883 0.079883 0.079883
0.106400 0.106400 0.106400
0.135132 0.135132 0.135132
0.165878 0.165878 0.165878
0.198437 0.198437 0.198437
0.232608 0.232608 0.232608
0.268188 0.268188 0.268188
0.304977 0.304977 0.304977
0.342773 0.342773 0.342773
0.381375 0.381375 0.381375
0.420581 0.420581 0.420581
0.460190 0.460190 0.460190
0.500000 0.500000 0.500000
0.539810 0.539810 0.539810
0.579419 0.579419 0.579419
0.618625 0.618625 0.618625
0.657227 0.657227 0.657227
0.695023 0.695023 0.695023
0.731812 0.731812 0.731812
0.767392 0.767392 0.767392
0.801562 0.801562 0.801562
0.834122 0.834122 0.834122
0.864868 0.864868 0.864868
0.893600 0.893600 0.893600
0.920117 0.920117 0.920117
0.944217 0.944217 0.944217
0.965698 0.965698 0.965698
0.984360 0.984360 0.984360
1.000000 1.000000 1.000000
