Resources/ExampleLUTs/Warm_Amber.cube
TITLE Warm Amber
# Gentle evening warmth - shifts white point amber by reducing blue.
LUT_1D_SIZE 33

0.000000 0.000000 0.000000
0.031250 0.030156 0.025000
0.062500 0.060312 0.050000
0.093750 0.090469 0.075000
0.125000 0.120625 0.100000
0.156250 0.150781 0.125000
0.187500 0.180938 0.150000
0.218750 0.211094 0.175000
0.250000 0.241250 0.200000
0.281250 0.271406 0.225000
0.312500 0.301563 0.250000
0.343750 0.331719 0.275000
0.375000 0.361875 0.300000
0.406250 0.392031 0.325000
0.437500 0.422187 0.350000
0.468750 0.452344 0.375000
0.500000 0.482500 0.400000
0.531250 0.512656 0.425000
0.562500 0.542813 0.450000
0.593750 0.572969 0.475000
0.625000 0.603125 0.500000
0.656250 0.633281 0.525000
0.687500 0.663438 0.550000
0.718750 0.693594 0.575000
0.750000 0.723750 0.600000
0.781250 0.753906 0.625000
0.812500 0.784062 0.650000
0.843750 0.814219 0.675000
0.875000 0.844375 0.700000
0.906250 0.874531 0.725000
0.937500 0.904687 0.750000
0.968750 0.934844 0.775000
1.000000 0.965000 0.800000
